img/logo.svg

<svg width="240" height="77" viewBox="0 0 240 77" fill="none" xmlns="http://www.w3.org/2000/svg">
<g filter="url(#filter0_d)">
<path d="M115.152 52H110.406V30.502H104.061V52H99.2793V26.3008H115.152V52ZM135.578 52H130.797V30.502H126.947C126.42 36.4316 125.893 41.3301 125.365 45.1973C125.014 47.6699 124.375 49.4805 123.449 50.6289C122.535 51.7773 121.311 52.3516 119.775 52.3516C118.826 52.3516 118.047 52.2227 117.438 51.9648V48.0098C117.789 48.1504 118.223 48.2207 118.738 48.2207C119.395 48.2207 119.893 47.7051 120.232 46.6738C120.584 45.6426 120.977 43.3281 121.41 39.7305C121.855 36.1328 122.318 31.6562 122.799 26.3008H135.578V52ZM140.131 26.3008H144.561V40.416C144.561 41.8809 144.449 43.3281 144.227 44.7578H144.42L152.26 26.3008H158.131V52H153.736V37.9199C153.736 36.1855 153.871 34.6621 154.141 33.3496H153.912L146.037 52H140.131V26.3008ZM170.559 52H165.795V30.502H160.873V26.3008H175.48V30.502H170.559V52ZM195.01 52H189.648L183.057 38.9746V52H178.311V26.3008H183.057V38.7461L189.754 26.3008H194.869L187.82 38.6758L195.01 52ZM197.295 26.3008H201.725V40.416C201.725 41.8809 201.613 43.3281 201.391 44.7578H201.584L209.424 26.3008H215.295V52H210.9V37.9199C210.9 36.1855 211.035 34.6621 211.305 33.3496H211.076L203.201 52H197.295V26.3008ZM235.703 52H230.922V40.7324H224.611V52H219.83V26.3008H224.611V36.5137H230.922V26.3008H235.703V52Z" fill="black"/>
</g>
<g clip-path="url(#clip0)">
<path d="M-0.000664933 58.1284C0.0126551 58.434 0.0993511 58.732 0.252099 58.9971C0.404847 59.2622 0.61916 59.4866 0.876932 59.6514L31.1389 76.7984C31.4126 76.9306 31.7126 76.9993 32.0165 76.9993C32.3204 76.9993 32.6204 76.9306 32.8941 76.7984L57.0028 63.1212C57.487 62.8488 57.4366 62.5261 56.8918 62.405L0.987893 50.1601C0.867835 50.1222 0.740384 50.1142 0.616514 50.1365C0.492643 50.1589 0.376064 50.211 0.276813 50.2884C0.177561 50.3658 0.098611 50.4662 0.0467598 50.5809C-0.00509135 50.6956 -0.0282901 50.8212 -0.0208396 50.9468L-0.000664933 58.1284Z" fill="#2B2B2B"/>
<path d="M60.9375 16.0476C60.6794 15.9154 60.3884 15.8612 60.1 15.8916C59.8116 15.9221 59.5383 16.0359 59.3135 16.2191L20.4369 50.624C20.0233 50.9871 20.1242 51.3906 20.6689 51.5015L59.7674 60.1456C60.4167 60.2617 61.0862 60.1626 61.6739 59.8632L66.1729 57.2911C66.4246 57.1232 66.634 56.8992 66.7845 56.6366C66.935 56.3741 67.0226 56.0803 67.0404 55.7782V20.526C67.0226 20.2239 66.935 19.9301 66.7845 19.6675C66.634 19.405 66.4246 19.181 66.1729 19.013L60.9375 16.0476Z" fill="#CE1257"/>
<path d="M33.9741 0.211678C33.7042 0.072772 33.4051 0.000305176 33.1016 0.000305176C32.798 0.000305176 32.4989 0.072772 32.229 0.211678L29.8988 1.55318C29.7866 1.61512 29.6891 1.70065 29.613 1.80387C29.537 1.90709 29.4842 2.02556 29.4583 2.15112C29.4325 2.27669 29.4341 2.40637 29.4631 2.53124C29.4921 2.65612 29.5479 2.77322 29.6265 2.8745L44.7575 23.6929C44.8322 23.7974 44.9283 23.8848 45.0393 23.9494C45.1503 24.014 45.2738 24.0543 45.4015 24.0677C45.5293 24.081 45.6584 24.0671 45.7804 24.0269C45.9024 23.9866 46.0145 23.9209 46.1092 23.8342L56.6403 14.4235C56.7393 14.3574 56.8191 14.2663 56.8715 14.1595C56.924 14.0526 56.9473 13.9338 56.9391 13.8151C56.9309 13.6964 56.8915 13.5819 56.8249 13.4833C56.7582 13.3846 56.6667 13.3054 56.5596 13.2535L33.9741 0.211678Z" fill="#2B2B2B"/>
<path d="M0.86751 19.0634C0.617651 19.2357 0.409884 19.4621 0.259682 19.7258C0.109481 19.9895 0.0207162 20.2837 0 20.5865V45.8531C0.0116272 46.1399 0.116364 46.4151 0.298365 46.6372C0.480365 46.8592 0.729729 47.0159 1.00873 47.0836L16.0086 50.4928C16.3119 50.5431 16.6223 50.5287 16.9196 50.4505C17.2169 50.3722 17.4943 50.232 17.7335 50.0389L42.5988 27.3747C42.7956 27.1816 42.9193 26.9262 42.9487 26.6521C42.9781 26.378 42.9115 26.1022 42.7602 25.8718L27.5182 4.5389C27.3562 4.31822 27.1189 4.16454 26.8513 4.10693C26.5836 4.04931 26.3041 4.09175 26.0656 4.22622L0.86751 19.0634Z" fill="#08415C"/>
</g>
<defs>
<filter id="filter0_d" x="95.2793" y="26.3008" width="144.424" height="34.0508" filterUnits="userSpaceOnUse" color-interpolation-filters="sRGB">
<feFlood flood-opacity="0" result="BackgroundImageFix"/>
<feColorMatrix in="SourceAlpha" type="matrix" values="0 0 0 0 0 0 0 0 0 0 0 0 0 0 0 0 0 0 127 0"/>
<feOffset dy="4"/>
<feGaussianBlur stdDeviation="2"/>
<feColorMatrix type="matrix" values="0 0 0 0 0 0 0 0 0 0 0 0 0 0 0 0 0 0 0.25 0"/>
<feBlend mode="normal" in2="BackgroundImageFix" result="effect1_dropShadow"/>
<feBlend mode="normal" in="SourceGraphic" in2="effect1_dropShadow" result="shape"/>
</filter>
<clipPath id="clip0">
<rect width="67" height="77" fill="white"/>
</clipPath>
</defs>
</svg>

<svg width="240" height="77" viewBox="0 0 240 77" fill="none" xmlns="http://www.w3.org/2000/svg"><path d="M115.152 52h-4.746V30.502h-6.345V52h-4.782V26.3h15.873V52zm20.426 0h-4.781V30.502h-3.85c-.527 5.93-1.054 10.828-1.582 14.695-.351 2.473-.99 4.283-1.916 5.432-.914 1.148-2.138 1.723-3.674 1.723-.949 0-1.728-.13-2.337-.387V48.01c.351.14.785.21 1.3.21.657 0 1.155-.515 1.494-1.546.352-1.031.745-3.346 1.178-6.944.445-3.597.908-8.074 1.389-13.43h12.779V52zm4.553-25.7h4.43v14.116c0 1.465-.112 2.912-.334 4.342h.193l7.84-18.457h5.871V52h-4.395V37.92c0-1.735.135-3.258.405-4.57h-.229L146.037 52h-5.906V26.3zM170.559 52h-4.764V30.502h-4.922v-4.201h14.607v4.201h-4.921V52zm24.451 0h-5.362l-6.591-13.025V52h-4.746V26.3h4.746v12.446l6.697-12.445h5.115l-7.049 12.375L195.01 52zm2.285-25.7h4.43v14.116c0 1.465-.112 2.912-.334 4.342h.193l7.84-18.457h5.871V52H210.9V37.92c0-1.735.135-3.258.405-4.57h-.229L203.201 52h-5.906V26.3zM235.703 52h-4.781V40.732h-6.311V52h-4.781V26.3h4.781v10.214h6.311V26.3h4.781V52z" fill="#000" filter="url(#a)"/><g clip-path="url(#b)"><path d="M0 58.128a1.906 1.906 0 0 0 .877 1.523l30.262 17.147a2.018 2.018 0 0 0 1.755 0l24.109-13.677c.484-.272.434-.595-.111-.716L.988 50.16a.777.777 0 0 0-1.009.787L0 58.128z" fill="#2B2B2B"/><path d="M60.938 16.048a1.494 1.494 0 0 0-1.625.171L20.438 50.624c-.414.363-.313.767.232.877l39.098 8.645c.65.116 1.32.017 1.907-.283l4.499-2.572a1.956 1.956 0 0 0 .867-1.513V20.526a1.958 1.958 0 0 0-.867-1.513l-5.236-2.965z" fill="#CE1257"/><path d="M33.974.212a1.907 1.907 0 0 0-1.745 0l-2.33 1.341a.889.889 0 0 0-.273 1.321l15.131 20.819a.907.907 0 0 0 1.352.141l10.531-9.41a.675.675 0 0 0-.08-1.17L33.974.212z" fill="#2B2B2B"/><path d="M.868 19.063A2.018 2.018 0 0 0 0 20.587v25.266a1.322 1.322 0 0 0 1.009 1.23l15 3.41a2.18 2.18 0 0 0 1.724-.454L42.6 27.375a1.19 1.19 0 0 0 .161-1.503L27.518 4.539a1.12 1.12 0 0 0-1.452-.313L.868 19.063z" fill="#08415C"/></g><defs><filter id="a" x="95.279" y="26.301" width="144.424" height="34.051" filterUnits="userSpaceOnUse" color-interpolation-filters="sRGB"><feFlood flood-opacity="0" result="BackgroundImageFix"/><feColorMatrix in="SourceAlpha" values="0 0 0 0 0 0 0 0 0 0 0 0 0 0 0 0 0 0 127 0"/><feOffset dy="4"/><feGaussianBlur stdDeviation="2"/><feColorMatrix values="0 0 0 0 0 0 0 0 0 0 0 0 0 0 0 0 0 0 0.25 0"/><feBlend in2="BackgroundImageFix" result="effect1_dropShadow"/><feBlend in="SourceGraphic" in2="effect1_dropShadow" result="shape"/></filter><clipPath id="b"><path fill="#fff" d="M0 0h67v77H0z"/></clipPath></defs></svg>
